fs/document_page_break_24_filled.svg

<svg viewBox="0 0 24 24" fill="none" xmlns="http://www.w3.org/2000/svg" height="1em" width="1em">
  <path d="M2.5 12C2.5 11.5858 2.83579 11.25 3.25 11.25H4.75C5.16421 11.25 5.5 11.5858 5.5 12C5.5 12.4142 5.16421 12.75 4.75 12.75H3.25C2.83579 12.75 2.5 12.4142 2.5 12ZM6.5 12C6.5 11.5858 6.83579 11.25 7.25 11.25H8.75C9.16421 11.25 9.5 11.5858 9.5 12C9.5 12.4142 9.16421 12.75 8.75 12.75H7.25C6.83579 12.75 6.5 12.4142 6.5 12ZM10.5 12C10.5 11.5858 10.8358 11.25 11.25 11.25H12.75C13.1642 11.25 13.5 11.5858 13.5 12C13.5 12.4142 13.1642 12.75 12.75 12.75H11.25C10.8358 12.75 10.5 12.4142 10.5 12ZM14.5 12C14.5 11.5858 14.8358 11.25 15.25 11.25H16.75C17.1642 11.25 17.5 11.5858 17.5 12C17.5 12.4142 17.1642 12.75 16.75 12.75H15.25C14.8358 12.75 14.5 12.4142 14.5 12ZM18.5 12C18.5 11.5858 18.8358 11.25 19.25 11.25H20.75C21.1642 11.25 21.5 11.5858 21.5 12C21.5 12.4142 21.1642 12.75 20.75 12.75H19.25C18.8358 12.75 18.5 12.4142 18.5 12ZM5 2C4.44772 2 4 2.44772 4 3V7C4 8.104 4.896 9 6 9H18C19.104 9 20 8.104 20 7V3C20 2.44772 19.5523 2 19 2H5ZM19 22C19.5523 22 20 21.5523 20 21V17C20 15.896 19.104 15 18 15L6 15C4.896 15 4 15.896 4 17L4 21C4 21.5523 4.44772 22 5 22L19 22Z" fill="#212121"/>
</svg>

<svg viewBox="0 0 24 24" fill="none" xmlns="http://www.w3.org/2000/svg" height="1em" width="1em">
  <path d="M2.5 12a.75.75 0 0 1 .75-.75h1.5a.75.75 0 0 1 0 1.5h-1.5A.75.75 0 0 1 2.5 12Zm4 0a.75.75 0 0 1 .75-.75h1.5a.75.75 0 0 1 0 1.5h-1.5A.75.75 0 0 1 6.5 12Zm4 0a.75.75 0 0 1 .75-.75h1.5a.75.75 0 0 1 0 1.5h-1.5a.75.75 0 0 1-.75-.75Zm4 0a.75.75 0 0 1 .75-.75h1.5a.75.75 0 0 1 0 1.5h-1.5a.75.75 0 0 1-.75-.75Zm4 0a.75.75 0 0 1 .75-.75h1.5a.75.75 0 0 1 0 1.5h-1.5a.75.75 0 0 1-.75-.75ZM5 2a1 1 0 0 0-1 1v4a2 2 0 0 0 2 2h12a2 2 0 0 0 2-2V3a1 1 0 0 0-1-1H5Zm14 20a1 1 0 0 0 1-1v-4a2 2 0 0 0-2-2H6a2 2 0 0 0-2 2v4a1 1 0 0 0 1 1h14Z" fill="#212121"/>
</svg>
